X: 220
T: Bana Tavr-ı
C: Şakir Ağa
O: Turkey
F: http://compmusic.upf.edu/node/140
N: acemasiran--sarki--raksaksagi--bana_tavr-i--sakir_aga
N: makam= acemasiran
N: form= sarki
N: usul= raksaksagi = 9/8
M: 9/8
L: 1/16
K: C _B   
Q: 1/4=102
%%MIDI tuningsystem comma53
a4b2a2g2f2e2d2 | e2c4b2a2g2f2e2  | f4f4b2a2g2f2 | \
w:   |   |   | 
e2d2e2c4b2a2g2  | 
w:   | 
f2e2f4c4f2_e2 | d2c2B2A2G2F4b2  | a2g2f2e2f4c4 | \
w:   |   |   | 
f2_e2d2c2B2A2G2A2  | 
w:   | 
B2c2B2c2A2G2F4 | f2g2_a4g2g2f2f2  | e2e2_d2c2B2A2e2f2 | 
w:   |   |   | 
g4f2g2_a4g2g2  | f2f2e2e2_d2d2c2B2 | \
w:   |   | 
e3_dc4A2B2c2B2  | 
w:   | 
c2B3AG2A2B4c4d2c2B2A2G2F4  | c2B2c2B3AG2A2B4c4d2c2B2A4  | 
w:   |   | 
c4f2_e2d2c2B2A2 | G2F4b2a2g2f2e2  | f4c4f2_e2d2c2 | \
w:   |   |   | 
B2A2G2A2B2c2B2c2  | 
w:   | 
A2G2F4f4a2g2 | a2g2f2e2g2f2e2d2  | e2f2e2d2c4f4 | \
w:   |   |   | 
a2g2a2b2g2g2f2a2  | 
w:   | 
g2f2e2g2f6z2 | c4d2c2B2A2B2c4A4B2A2G2F2G2 | \
w:   |   | 
A4d4c2B2A2B2  | 
w:   | 
A2G2A2F4B2A2G2 | F2E2F4f4a2g2  | a2g2f2e2g2f2e2d2 | 
w:   |   |   | 
e2f2e2d2c4f4  | a2g2a2b2g2g2f2a2 | g2f2e2g2f6z2  | \
w:   |   |   | 
c4d2c2B2A2B2c4A4B2A2G2F2G2  | 
w:   | 
A4d4c2B2A2B2 | A2G2A2F4B2A2G2  | F2E2F4|
w:   |   |   | 


